X:1
T:Title
%%score ( 1 2 ) ( 3 4 ) 5
L:1/8
Q:1/4=85
M:4/4
K:D
V:1 treble nm="Grand Piano, Soprano"
V:2 treble 
V:3 treble nm="Choir Aahs, Staff-1"
V:4 treble 
V:5 bass nm="Choir Pad, Lift Him Up (Amy)"
V:1
 DFFF FBAF | D F2 E- E D3 | ABBB BBBc | d c2 B- B A2 B | cddc BAAF | ABBD E F2 A | z8 | z8 | %8
w: By~James~Milton~Dungan * * * * * * *||||||||
 z d3- d2- d/ z/ z | z8 | z G3- G2- G/ z/ z | z F3- F2- F/ z/ z | z .F3 z4 | z8 | %14
w: ||||||
 z F3- F2- F/ z/ z | z8 |] %16
w: ||
V:2
 x8 | x8 | x8 | x8 | x8 | x8 | AdcB dAFD- | D/E/ F2 F- F/E/ D2 [GA]- | %8
 [GA]/[GA]/ F2 F- F/F/F- F/[Fc]/[GB]- | [GB]/[Gd]/ [FA]2 [DF]- [DF]2- [DF]/ z/ [FA]- | %10
 [FA]/[DB]/ C2 C- C/C/ C2 [CA]- | [CA]/[CB]/ D2 D- D/D/ D2 [GA]- | %12
 [GA]/[GA]/ d2- [Fd]- [Fd-]/[Fd-]/[Fd]- [Fd]/[Fc]/[GB]- | %13
 [GB]/[Gd]/ [FA]2 [DF]- [DF]2- [DF]/ z/ D- | D/[DE]/ D2 D- D/D/ D2 [CF]- | %15
 [CF]/[A,E]/ [A,D]3- [A,D]3- [A,D]/ z/ |] %16
V:3
 z F3- F z z2 | z F2[K:bass] E- E/ z/ D3 | [DFA][^DFB][DFB][EGB] [DAB][EGB][EGB][E^Gc] | %3
 z [EA] z B- B/ z/ z z2 | [EAc][DAd][DAd][DAc] [DGB][DA][DA][DF] | %5
 [EA][DFB][DFB][B,D] [B,E] [^A,CF]2 [CGA] | [CGA][DFd][DAc][DGB] [DFd][DFA][A,DF][B,D]- | %7
 [B,D]/[DE]/ [DF]2 [A,CF]- [A,CF]/[K:bass][G,A,CE]/ .[F,A,D]3 | z8 | z8 | z8 | z8 | z8 | z8 | z8 | %15
 z8 |] %16
V:4
 .D2 A,D G,[DB][DA][A,DF] | [^G,D][A,C][K:bass][A,C][=G,A,C] [G,A,C][F,A,][G,B,][F,A,] | x8 | %3
 [E^G^d]c-[EAc][DEG] [DEG] [CEA]2 [CEB] | x8 | x8 | x8 | x9/2[K:bass] x7/2 | x8 | x8 | x8 | x8 | %12
 x8 | x8 | x8 | x8 |] %16
V:5
 z D,3- D,G,F,D, | B,, A,,3- A,, D,3 | =C,B,,A,,G,, F,, E,,2 E,,- | %3
 E,, [E,,E,]2 [E,,E,]- [E,,E,] A,,2 G,- | G, F,2 G,- G, F,2 D, | %5
 C, B,,2 [G,,G,]- [G,,G,] [F,,F,]2 E,- | E, [D,,D,]2 [D,,D,]- [D,,D,] [D,,D,]2 [B,,F,]- | %7
 [B,,F,]/[B,,^G,]/ [A,,A,]2 [A,,,A,,]- [A,,,A,,] [D,,D,]2 [A,C]- | %8
 [A,C]/[A,C]/ [D,D]2 [D,D]- [D,D]/[D,D]/[D,D]- [D,D]/[D,D]/[G,D]- | %9
 [G,D]/[G,B,]/ [D,D]2 [D,A,]- [D,A,]2- [D,A,]/ z/ [D,A,]- | %10
 [D,A,]/[D,F,]/ [E,A,]2 [A,,A,]- [A,,A,]/[A,,A,]/ [A,,A,]2 [A,,A,]- | %11
 [A,,A,]/[A,,A,]/ [D,A,]2 [D,A,]- [D,A,]/[D,A,]/ [D,A,]2 [A,C]- | %12
 [A,C]/[A,C]/ [D,D]2 [D,D]- [D,D]/[D,D]/[D,D]- [D,D]/[D,D]/[G,D]- | %13
 [G,D]/[G,B,]/ [D,D]2 [D,D]- [D,D]2- [D,D]/ z/ [B,,F,]- | %14
 [B,,F,]/[B,,^G,]/ [A,,A,]2 [A,,A,]- [A,,A,]/[A,,A,]/ [A,,A,]2 [A,,=G,]- | %15
 [A,,G,]/[A,,G,]/ [D,F,]3- [D,F,]3- [D,F,]/ z/ |] %16

